src/img/geolocation-blue.svg

<svg fill="none" height="18" viewBox="0 0 18 18" width="18" xmlns="http://www.w3.org/2000/svg" xmlns:xlink="http://www.w3.org/1999/xlink"><mask id="a" height="18" maskUnits="userSpaceOnUse" width="18" x="0" y="0"><path clip-rule="evenodd" d="m.75 9c0-4.575 3.675-8.25 8.25-8.25s8.25 3.675 8.25 8.25-3.675 8.25-8.25 8.25-8.25-3.675-8.25-8.25zm9 4.5v2.175c3.15-.3 5.625-2.775 5.925-5.925h-2.175c-.45 0-.75-.3-.75-.75s.3-.75.75-.75h2.175c-.3-3.075-2.775-5.55-5.925-5.925v2.175c0 .45-.3.75-.75.75s-.75-.3-.75-.75v-2.175c-3.15.3-5.625 2.775-5.925 5.925h2.175c.45 0 .75.3.75.75s-.3.75-.75.75h-2.175c.3 3.075 2.775 5.55 5.925 5.925v-2.175c0-.45.3-.75.75-.75s.75.3.75.75z" fill="#fff" fill-rule="evenodd"/></mask><circle cx="9" cy="9" fill="#4285f4" r="2.8125"/><path clip-rule="evenodd" d="m.75 9c0-4.575 3.675-8.25 8.25-8.25s8.25 3.675 8.25 8.25-3.675 8.25-8.25 8.25-8.25-3.675-8.25-8.25zm9 4.5v2.175c3.15-.3 5.625-2.775 5.925-5.925h-2.175c-.45 0-.75-.3-.75-.75s.3-.75.75-.75h2.175c-.3-3.075-2.775-5.55-5.925-5.925v2.175c0 .45-.3.75-.75.75s-.75-.3-.75-.75v-2.175c-3.15.3-5.625 2.775-5.925 5.925h2.175c.45 0 .75.3.75.75s-.3.75-.75.75h-2.175c.3 3.075 2.775 5.55 5.925 5.925v-2.175c0-.45.3-.75.75-.75s.75.3.75.75z" fill="#333" fill-rule="evenodd"/><g mask="url(#a)"><path d="m0 0h18v18h-18z" fill="#4285f4"/></g></svg>

<svg width="18" height="18" viewBox="0 0 18 18" fill="none" xmlns="http://www.w3.org/2000/svg">
<circle cx="9" cy="9" r="2.8125" fill="#4285F4"/>
<path fill-rule="evenodd" clip-rule="evenodd" d="M0.75 9C0.75 4.425 4.425 0.75 9 0.75C13.575 0.75 17.25 4.425 17.25 9C17.25 13.575 13.575 17.25 9 17.25C4.425 17.25 0.75 13.575 0.75 9ZM9.75 13.5V15.675C12.9 15.375 15.375 12.9 15.675 9.75H13.5C13.05 9.75 12.75 9.45 12.75 9C12.75 8.55 13.05 8.25 13.5 8.25H15.675C15.375 5.175 12.9 2.7 9.75 2.325V4.5C9.75 4.95 9.45 5.25 9 5.25C8.55 5.25 8.25 4.95 8.25 4.5V2.325C5.1 2.625 2.625 5.1 2.325 8.25H4.5C4.95 8.25 5.25 8.55 5.25 9C5.25 9.45 4.95 9.75 4.5 9.75H2.325C2.625 12.825 5.1 15.3 8.25 15.675V13.5C8.25 13.05 8.55 12.75 9 12.75C9.45 12.75 9.75 13.05 9.75 13.5Z" fill="#333333"/>
<mask id="mask0" mask-type="alpha" maskUnits="userSpaceOnUse" x="0" y="0" width="18" height="18">
<path fill-rule="evenodd" clip-rule="evenodd" d="M0.75 9C0.75 4.425 4.425 0.75 9 0.75C13.575 0.75 17.25 4.425 17.25 9C17.25 13.575 13.575 17.25 9 17.25C4.425 17.25 0.75 13.575 0.75 9ZM9.75 13.5V15.675C12.9 15.375 15.375 12.9 15.675 9.75H13.5C13.05 9.75 12.75 9.45 12.75 9C12.75 8.55 13.05 8.25 13.5 8.25H15.675C15.375 5.175 12.9 2.7 9.75 2.325V4.5C9.75 4.95 9.45 5.25 9 5.25C8.55 5.25 8.25 4.95 8.25 4.5V2.325C5.1 2.625 2.625 5.1 2.325 8.25H4.5C4.95 8.25 5.25 8.55 5.25 9C5.25 9.45 4.95 9.75 4.5 9.75H2.325C2.625 12.825 5.1 15.3 8.25 15.675V13.5C8.25 13.05 8.55 12.75 9 12.75C9.45 12.75 9.75 13.05 9.75 13.5Z" fill="white"/>
</mask>
<g mask="url(#mask0)">
<rect width="18" height="18" fill="#4285F4"/>
</g>
</svg>
